X:670
L:1/8
Q:1/4=120
M:2/4
K:C
 C |[K:D]"^Quadrilles,No2" Ad/d/ dA/A/ | Ad/d/ dA/A/ | Ad Af | db a2 | ab/b/ ba/g/ | fa/a/ ag/f/ | 
 ef ga/g/ | fd d2 :: .d'.c' .b.a | .d'.c' .b.a | .d'.c' .b.a | ge e2 | .c'.b .a.g | .c'.b .a.g | 
 .c'.b .a.g | fd d2 :|

